X: 3448
T: Better Than Nothing
R: jig
M: 6/8
K: Dmixolydian
|:A|d2f edc|d2e dcA|~[G3B3] BAG|AFD DEF|
~G3 BAG|AFA AB^c|dfe dfe|1 d3 d2:|2 d3 dfg||
|:afd def|e^cA A2=c|BAG GAB|AFD DEF|
~G3 BAG|AFA d2A|dfe dfe|1 d3 dfg:|2 d3 d2||

